SVG/magnet.svg

<?xml version="1.0" encoding="utf-8"?>
<!-- Generated by IcoMoon.io -->
<!DOCTYPE svg PUBLIC "-//W3C//DTD SVG 1.1//EN" "http://www.w3.org/Graphics/SVG/1.1/DTD/svg11.dtd">
<svg version="1.1" xmlns="http://www.w3.org/2000/svg" xmlns:xlink="http://www.w3.org/1999/xlink" width="12" height="14" viewBox="0 0 12 14">
<path fill="#444444" d="M12 6.5v1q0 1.57-0.77 2.828t-2.141 1.965-3.090 0.707-3.090-0.707-2.141-1.965-0.77-2.828v-1q0-0.203 0.148-0.352t0.352-0.148h3q0.203 0 0.352 0.148t0.148 0.352v1q0 0.406 0.184 0.703t0.418 0.445 0.555 0.234 0.5 0.102 0.344 0.016 0.344-0.016 0.5-0.102 0.555-0.234 0.418-0.445 0.184-0.703v-1q0-0.203 0.148-0.352t0.352-0.148h3q0.203 0 0.352 0.148t0.148 0.352zM4 1.5v3q0 0.203-0.148 0.352t-0.352 0.148h-3q-0.203 0-0.352-0.148t-0.148-0.352v-3q0-0.203 0.148-0.352t0.352-0.148h3q0.203 0 0.352 0.148t0.148 0.352zM12 1.5v3q0 0.203-0.148 0.352t-0.352 0.148h-3q-0.203 0-0.352-0.148t-0.148-0.352v-3q0-0.203 0.148-0.352t0.352-0.148h3q0.203 0 0.352 0.148t0.148 0.352z"></path>
</svg>

<svg xmlns="http://www.w3.org/2000/svg" viewBox="0 0 12 14"><path d="M12 6.5v1q0 1.57-.77 2.828t-2.14 1.965T6 13t-3.09-.707-2.142-1.965-.77-2.828v-1q0-.203.148-.352T.498 6h3q.203 0 .352.148t.148.352v1q0 .406.184.703t.418.445.555.234.5.102T6 9t.343-.016.5-.102.555-.234.418-.445T8 7.5v-1q0-.203.148-.352T8.5 6h3q.203 0 .352.148T12 6.5zm-8-5v3q0 .203-.148.352T3.5 5h-3q-.203 0-.352-.148T0 4.5v-3q0-.203.148-.352T.5 1h3q.203 0 .352.148T4 1.5zm8 0v3q0 .203-.148.352T11.5 5h-3q-.203 0-.352-.148T8 4.5v-3q0-.203.148-.352T8.5 1h3q.203 0 .352.148T12 1.5z" /></svg>
